_includes/icons/ios-doc.svg

<svg fill="#666" height="50" viewBox="0 0 50 50" width="50" xmlns="http://www.w3.org/2000/svg"><path d="m7 2v46h36v-31.832031c.019531-.109375.019531-.21875 0-.324219v-.433594l-13.816406-13.410156zm2 2h19v13h13v29h-32zm21 1.578125 9.707031 9.421875h-9.707031zm-4.183594 18.746094c-2.234375 0-3.332031 2.386719-3.332031 5.144531 0 2.777344.902344 5.207031 3.199219 5.207031 1.917969 0 3.269531-1.542968 3.269531-5.355468 0-2.308594-.691406-4.996094-3.136719-4.996094zm7.964844.03125c-1.964844 0-4.078125 1.484375-4.078125 5.296875 0 2.863281 1.230469 4.992187 3.8125 4.992187.6875 0 1.242188-.105468 1.527344-.238281l-.199219-1.652344c-.238281.074219-.613281.152344-.941406.152344-1.199219 0-2.117188-.945312-2.117188-3.359375 0-2.503906 1.007813-3.46875 2.117188-3.46875.433594 0 .6875.09375.914062.199219l.328125-1.652344c-.191406-.132812-.671875-.269531-1.363281-.269531zm-16.171875.046875c-.777344 0-1.5.074219-1.992187.191406v9.933594c.390625.042969 1.003906.101562 1.617187.101562 1.410156 0 2.417969-.316406 3.09375-.972656.882813-.78125 1.40625-2.234375 1.40625-4.277344 0-1.964843-.449219-3.296875-1.316406-4.078125-.644531-.597656-1.53125-.898437-2.808594-.898437zm.363281 1.570312c1.183594 0 1.726563 1.261719 1.726563 3.332032 0 2.789062-.828125 3.722656-1.773438 3.722656-.105468 0-.253906-.003906-.34375-.03125v-6.976563c.121094-.046875.253907-.046875.390625-.046875zm7.769532.0625c.882812 0 1.152343 1.605469 1.152343 3.375 0 2.054688-.3125 3.558594-1.136718 3.558594-.792969 0-1.230469-1.171875-1.230469-3.46875 0-2.171875.4375-3.464844 1.214844-3.464844z"/></svg>

<svg xmlns="http://www.w3.org/2000/svg" viewBox="0 0 50 50" width="50" height="50" fill="#666"><path d="M 7 2 L 7 48 L 43 48 L 43 16.167969 C 43.019531 16.058594 43.019531 15.949219 43 15.84375 L 43 15.410156 L 29.183594 2 Z M 9 4 L 28 4 L 28 17 L 41 17 L 41 46 L 9 46 Z M 30 5.578125 L 39.707031 15 L 30 15 Z M 25.816406 24.324219 C 23.582031 24.324219 22.484375 26.710938 22.484375 29.46875 C 22.484375 32.246094 23.386719 34.675781 25.683594 34.675781 C 27.601563 34.675781 28.953125 33.132813 28.953125 29.320313 C 28.953125 27.011719 28.261719 24.324219 25.816406 24.324219 Z M 33.78125 24.355469 C 31.816406 24.355469 29.703125 25.839844 29.703125 29.652344 C 29.703125 32.515625 30.933594 34.644531 33.515625 34.644531 C 34.203125 34.644531 34.757813 34.539063 35.042969 34.40625 L 34.84375 32.753906 C 34.605469 32.828125 34.230469 32.90625 33.902344 32.90625 C 32.703125 32.90625 31.785156 31.960938 31.785156 29.546875 C 31.785156 27.042969 32.792969 26.078125 33.902344 26.078125 C 34.335938 26.078125 34.589844 26.171875 34.816406 26.277344 L 35.144531 24.625 C 34.953125 24.492188 34.472656 24.355469 33.78125 24.355469 Z M 17.609375 24.402344 C 16.832031 24.402344 16.109375 24.476563 15.617188 24.59375 L 15.617188 34.527344 C 16.007813 34.570313 16.621094 34.628906 17.234375 34.628906 C 18.644531 34.628906 19.652344 34.3125 20.328125 33.65625 C 21.210938 32.875 21.734375 31.421875 21.734375 29.378906 C 21.734375 27.414063 21.285156 26.082031 20.417969 25.300781 C 19.773438 24.703125 18.886719 24.402344 17.609375 24.402344 Z M 17.972656 25.972656 C 19.15625 25.972656 19.699219 27.234375 19.699219 29.304688 C 19.699219 32.09375 18.871094 33.027344 17.925781 33.027344 C 17.820313 33.027344 17.671875 33.023438 17.582031 32.996094 L 17.582031 26.019531 C 17.703125 25.972656 17.835938 25.972656 17.972656 25.972656 Z M 25.742188 26.035156 C 26.625 26.035156 26.894531 27.640625 26.894531 29.410156 C 26.894531 31.464844 26.582031 32.96875 25.757813 32.96875 C 24.964844 32.96875 24.527344 31.796875 24.527344 29.5 C 24.527344 27.328125 24.964844 26.035156 25.742188 26.035156 Z"/></svg>
